other/RTSInfo.svg

<?xml version="1.0" encoding="UTF-8" standalone="no"?>
<svg
   xmlns:dc="http://purl.org/dc/elements/1.1/"
   xmlns:cc="http://creativecommons.org/ns#"
   xmlns:rdf="http://www.w3.org/1999/02/22-rdf-syntax-ns#"
   xmlns:svg="http://www.w3.org/2000/svg"
   xmlns="http://www.w3.org/2000/svg"
   xmlns:sodipodi="http://sodipodi.sourceforge.net/DTD/sodipodi-0.dtd"
   xmlns:inkscape="http://www.inkscape.org/namespaces/inkscape"
   width="48"
   height="48"
   viewBox="0 0 48 48"
   version="1.1"
   id="svg4"
   sodipodi:docname="RTSInfo.svg"
   inkscape:version="0.92.3 (2405546, 2018-03-11)">
  <metadata
     id="metadata10">
    <rdf:RDF>
      <cc:Work
         rdf:about="">
        <dc:format>image/svg+xml</dc:format>
        <dc:type
           rdf:resource="http://purl.org/dc/dcmitype/StillImage" />
        <dc:title />
      </cc:Work>
    </rdf:RDF>
  </metadata>
  <defs
     id="defs8">
    <clipPath
       id="clip1">
      <path
         inkscape:connector-curvature="0"
         d="M 0,0 H 152 V 101.30859 H 0 Z m 0,0"
         id="path2" />
    </clipPath>
  </defs>
  <sodipodi:namedview
     pagecolor="#858585"
     bordercolor="#666666"
     borderopacity="1"
     objecttolerance="10"
     gridtolerance="10"
     guidetolerance="10"
     inkscape:pageopacity="0"
     inkscape:pageshadow="2"
     inkscape:window-width="1920"
     inkscape:window-height="1046"
     id="namedview6"
     showgrid="false"
     inkscape:zoom="13.906433"
     inkscape:cx="12.71144"
     inkscape:cy="26.893027"
     inkscape:window-x="0"
     inkscape:window-y="0"
     inkscape:window-maximized="1"
     inkscape:current-layer="svg4" />
  <path
     d="M 7 5 C 5.892 5 5 5.892 5 7 L 5 41 C 5 42.108 5.892 43 7 43 L 41 43 C 42.108 43 43 42.108 43 41 L 43 7 C 43 5.892 42.108 5 41 5 L 7 5 z M 12.285156 7.6269531 L 35.777344 7.6269531 L 35.777344 23.375 L 12.285156 23.375 L 12.285156 7.6269531 z M 30.783203 11.689453 C 28.869196 11.689453 27.939453 12.52449 27.939453 13.847656 C 27.939453 15.043303 28.58842 15.750757 29.714844 16.041016 L 30.574219 16.261719 C 31.281649 16.447533 31.583984 16.656803 31.583984 17.097656 C 31.583984 17.747398 31.141738 17.863281 30.074219 17.863281 C 29.586001 17.863281 28.739476 17.795174 28.449219 17.771484 C 28.148029 17.748414 28.067634 17.781465 28.021484 18.037109 L 27.880859 18.931641 C 27.858389 19.106526 27.939245 19.174196 28.089844 19.197266 C 28.426859 19.244024 29.273637 19.302734 30.097656 19.302734 C 31.943046 19.302734 33.289063 18.698339 33.289062 16.980469 C 33.289062 15.970636 32.847855 15.216969 31.316406 14.822266 L 30.457031 14.601562 C 29.877123 14.45097 29.611328 14.265253 29.611328 13.835938 C 29.611328 13.231737 30.167411 13.117188 30.701172 13.117188 C 31.420746 13.117188 32.153102 13.175539 32.443359 13.199219 C 32.744548 13.221689 32.824334 13.185935 32.871094 12.929688 L 33.011719 12.060547 C 33.035399 11.886269 32.953933 11.816649 32.802734 11.792969 C 32.466325 11.746823 31.723812 11.689453 30.783203 11.689453 z M 15.347656 11.769531 C 15.115695 11.769531 15.046875 11.85202 15.046875 12.083984 L 15.046875 18.919922 C 15.046875 19.153102 15.115687 19.232422 15.347656 19.232422 L 16.416016 19.232422 C 16.64859 19.232422 16.71875 19.153106 16.71875 18.919922 L 16.71875 13.152344 L 17.820312 13.152344 C 18.516812 13.152344 18.853516 13.406291 18.853516 14.056641 C 18.853516 14.648088 18.585543 14.835191 18.318359 14.951172 C 17.982558 15.090837 17.865556 14.939396 17.761719 15.380859 L 17.646484 15.867188 C 17.611874 16.006245 17.599609 16.076897 17.599609 16.123047 C 17.599609 16.23903 17.635417 16.331039 17.716797 16.470703 L 19.097656 18.955078 C 19.213031 19.153042 19.305871 19.232422 19.583984 19.232422 L 20.849609 19.232422 C 21.012348 19.232422 21.209249 19.128757 21.023438 18.837891 L 19.330078 16.029297 C 19.899059 15.669813 20.537109 15.159018 20.537109 14.033203 C 20.537109 12.583123 19.722642 11.769531 17.935547 11.769531 L 15.347656 11.769531 z M 21.433594 11.769531 C 21.201019 11.769531 21.130859 11.85202 21.130859 12.083984 L 21.130859 12.873047 C 21.130859 13.105007 21.201021 13.185547 21.433594 13.185547 L 23.40625 13.185547 L 23.40625 18.919922 C 23.40625 19.152492 23.476417 19.232422 23.708984 19.232422 L 24.775391 19.232422 C 25.007965 19.232422 25.078125 19.152496 25.078125 18.919922 L 25.078125 13.185547 L 27.048828 13.185547 C 27.281402 13.185547 27.351562 13.105013 27.351562 12.873047 L 27.351562 12.083984 C 27.351562 11.852021 27.281401 11.769531 27.048828 11.769531 L 21.433594 11.769531 z M 36.400391 27.132812 C 39.211344 27.132812 40.485056 28.036638 41.09375 30.460938 C 41.380427 31.602699 41.410311 34.372546 41.148438 35.466797 C 40.75517 37.110055 39.900855 38.147879 38.539062 38.636719 C 38.044806 38.814139 35.68992 38.955417 35 38.849609 C 34.146669 38.718741 33.202372 38.232766 32.660156 37.644531 C 31.695583 36.598091 31.34375 35.352925 31.34375 33 C 31.34375 28.776192 32.759395 27.132812 36.400391 27.132812 z M 30.599609 27.332031 L 30.599609 28.298828 L 30.599609 29.265625 L 28.199219 29.333984 L 25.800781 29.400391 L 25.761719 30.632812 L 25.722656 31.867188 L 27.927734 31.867188 L 30.132812 31.867188 L 30.132812 32.933594 L 30.132812 34 L 27.933594 34 L 25.732422 34 L 25.732422 36.333984 L 25.732422 38.666016 L 24.533203 38.666016 L 23.333984 38.666016 L 23.333984 33 L 23.333984 27.333984 L 26.966797 27.333984 L 30.599609 27.332031 z M 8.2675781 27.333984 L 9.4667969 27.333984 L 10.666016 27.333984 L 10.666016 33 L 10.666016 38.666016 L 9.4667969 38.666016 L 8.2675781 38.666016 L 8.2675781 33 L 8.2675781 27.333984 z M 12.533203 27.333984 L 13.662109 27.333984 L 14.791016 27.333984 L 15.228516 28.041016 C 15.469103 28.430301 15.741854 28.865431 15.833984 29.007812 C 15.926124 29.150194 16.041727 29.356797 16.091797 29.466797 C 16.141867 29.576797 16.382208 29.977898 16.625 30.359375 C 16.867792 30.740853 17.066406 31.08623 17.066406 31.125 C 17.066406 31.16377 17.276537 31.522593 17.533203 31.923828 C 17.78987 32.325063 18 32.685844 18 32.724609 C 18 32.763379 18.199147 33.111623 18.443359 33.498047 C 18.687571 33.884471 18.925836 34.305261 18.972656 34.433594 C 19.019476 34.561928 19.119673 34.666016 19.195312 34.666016 C 19.286445 34.666016 19.333984 33.42994 19.333984 31 L 19.333984 27.333984 L 20.400391 27.333984 L 21.466797 27.333984 L 21.466797 33.005859 L 21.466797 38.677734 L 20.316406 38.638672 L 19.167969 38.599609 L 18.230469 37.066406 C 17.715261 36.223072 17.225808 35.414244 17.142578 35.267578 C 16.311141 33.802498 14.882046 31.466882 14.816406 31.466797 C 14.770736 31.466737 14.751738 33.086346 14.773438 35.066406 L 14.8125 38.666016 L 13.671875 38.666016 L 12.533203 38.666016 L 12.533203 33 L 12.533203 27.333984 z M 36.34375 29.074219 C 35.913271 29.069075 35.491831 29.119986 35.240234 29.232422 C 34.77462 29.440505 34.279396 29.957442 34.197266 30.322266 C 34.162966 30.474649 34.076036 30.869219 34.003906 31.199219 C 33.815389 32.061603 33.840481 34.073121 34.050781 34.966797 C 34.263075 35.86894 34.71285 36.577015 35.191406 36.767578 C 35.810298 37.014023 37.219067 36.961832 37.691406 36.673828 C 38.473216 36.197125 38.796875 35.121424 38.796875 33 C 38.796875 30.7584 38.409103 29.64043 37.498047 29.259766 C 37.213618 29.140919 36.774229 29.079319 36.34375 29.074219 z "
     id="rect2"
     style="fill:#ffffff" />
</svg>

<svg width="48" height="48" version="1.1" viewBox="0 0 48 48" xmlns="http://www.w3.org/2000/svg">
 <path d="m7 5c-1.108 0-2 0.892-2 2v34c0 1.108 0.892 2 2 2h34c1.108 0 2-0.892 2-2v-34c0-1.108-0.892-2-2-2h-34zm5.2852 2.627h23.492v15.748h-23.492v-15.748zm18.498 4.0625c-1.914 0-2.8438 0.83504-2.8438 2.1582 0 1.1956 0.64897 1.9031 1.7754 2.1934l0.85938 0.2207c0.70743 0.18581 1.0098 0.39508 1.0098 0.83594 0 0.64974-0.44225 0.76562-1.5098 0.76562-0.48822 0-1.3347-0.068107-1.625-0.091797-0.30119-0.02307-0.38158 0.009981-0.42774 0.26562l-0.14062 0.89453c-0.02247 0.17488 0.058386 0.24256 0.20898 0.26562 0.33702 0.046758 1.1838 0.10547 2.0078 0.10547 1.8454 0 3.1914-0.6044 3.1914-2.3223 0-1.0098-0.44121-1.7635-1.9727-2.1582l-0.85938-0.2207c-0.57991-0.15059-0.8457-0.33631-0.8457-0.76562 0-0.6042 0.55608-0.71875 1.0898-0.71875 0.71957 0 1.4519 0.058351 1.7422 0.082031 0.30119 0.02247 0.38098-0.013284 0.42774-0.26953l0.14062-0.86914c0.02368-0.17428-0.057786-0.2439-0.20898-0.26758-0.33641-0.046146-1.0789-0.10352-2.0195-0.10352zm-15.436 0.080078c-0.23196 0-0.30078 0.082489-0.30078 0.31445v6.8359c0 0.23318 0.068812 0.3125 0.30078 0.3125h1.0684c0.23257 0 0.30273-0.079316 0.30273-0.3125v-5.7676h1.1016c0.6965 0 1.0332 0.25395 1.0332 0.9043 0 0.59145-0.26797 0.77855-0.53516 0.89453-0.3358 0.13966-0.4528-0.011776-0.55664 0.42969l-0.11524 0.48633c-0.03461 0.13906-0.046875 0.20971-0.046875 0.25586 0 0.11598 0.035808 0.20799 0.11719 0.34766l1.3809 2.4844c0.11538 0.19796 0.20822 0.27734 0.48633 0.27734h1.2656c0.16274 0 0.35964-0.10366 0.17383-0.39453l-1.6934-2.8086c0.56898-0.35948 1.207-0.87028 1.207-1.9961 0-1.4501-0.81447-2.2637-2.6016-2.2637h-2.5879zm6.0859 0c-0.23258 0-0.30274 0.082489-0.30274 0.31445v0.78906c0 0.23196 0.070162 0.3125 0.30274 0.3125h1.9727v5.7344c0 0.23257 0.070167 0.3125 0.30273 0.3125h1.0664c0.23257 0 0.30273-0.079926 0.30273-0.3125v-5.7344h1.9707c0.23257 0 0.30273-0.080534 0.30273-0.3125v-0.78906c0-0.23196-0.070161-0.31445-0.30273-0.31445h-5.6152zm14.967 15.363c2.811 0 4.0847 0.90383 4.6934 3.3281 0.28668 1.1418 0.31656 3.9116 0.054688 5.0059-0.39327 1.6433-1.2476 2.6811-2.6094 3.1699-0.49426 0.17742-2.8491 0.3187-3.5391 0.21289-0.85333-0.13087-1.7976-0.61684-2.3398-1.2051-0.96457-1.0464-1.3164-2.2916-1.3164-4.6445 0-4.2238 1.4156-5.8672 5.0566-5.8672zm-5.8008 0.19922v0.9668 0.9668l-2.4004 0.068359-2.3984 0.066407-0.039062 1.2324-0.039063 1.2344h2.2051 2.2051v1.0664 1.0664h-2.1992-2.2012v2.334 2.332h-1.1992-1.1992v-5.666-5.666h3.6328l3.6328-0.001953zm-22.332 0.001953h1.1992 1.1992v5.666 5.666h-1.1992-1.1992v-5.666-5.666zm4.2656 0h1.1289 1.1289l0.4375 0.70703c0.24059 0.38928 0.51334 0.82442 0.60547 0.9668 0.09214 0.14238 0.20774 0.34898 0.25781 0.45898s0.29041 0.5111 0.5332 0.89258c0.24279 0.38148 0.44141 0.72686 0.44141 0.76562s0.21013 0.39759 0.4668 0.79883c0.25667 0.40124 0.4668 0.76202 0.4668 0.80078 0 0.03877 0.19915 0.38701 0.44336 0.77344s0.48248 0.80721 0.5293 0.93555c0.04682 0.12833 0.14702 0.23242 0.22266 0.23242 0.091133 0 0.13867-1.2361 0.13867-3.666v-3.666h1.0664 1.0664v5.6719 5.6719l-1.1504-0.039062-1.1484-0.039063-0.9375-1.5332c-0.51521-0.84333-1.0047-1.6522-1.0879-1.7988-0.83144-1.4651-2.2605-3.8007-2.3262-3.8008-0.04567-6e-5 -0.064668 1.6195-0.042968 3.5996l0.039062 3.5996h-1.1406-1.1387v-5.666-5.666zm23.811 1.7402c-0.43048-0.005144-0.85192 0.045767-1.1035 0.1582-0.46561 0.20808-0.96084 0.72502-1.043 1.0898-0.0343 0.15238-0.12123 0.54695-0.19336 0.87695-0.18852 0.86238-0.16342 2.8739 0.046875 3.7676 0.21229 0.90214 0.66207 1.6102 1.1406 1.8008 0.61889 0.24644 2.0277 0.19425 2.5-0.09375 0.78181-0.4767 1.1055-1.5524 1.1055-3.6738 0-2.2416-0.38777-3.3596-1.2988-3.7402-0.28443-0.11885-0.72382-0.18045-1.1543-0.18555z" fill="#fff"/>
</svg>
